X:1
T:Dedication, 75.75 D
T:Dedication, 75.75 D
T:Myles Birket Foster, 1890
T:Public Domain Courtesy of the Cyber Hymnal™
C:Myles Birket Foster, 1890
Z:Public Domain
Z:Courtesy of the Cyber Hymnal™
%%score ( 1 2 ) ( 3 4 )
L:1/8
Q:1/4=110
M:4/4
K:Eb
V:1 treble 
V:2 treble 
V:3 bass 
V:4 bass 
V:1
 E2 [DF]2 [EG]2 [FB]2 | [DB]2 (AG) [CA]4 | [DA]2 [EG]2 [EF]2 [DF]2 | [EG]8 | E2 [EG]2 [FB]2 [Ge]2 | %5
 [Fe]2 (dc) d4 | [Gd]2 (cG) [FB]2 [E=A]2 | [DB]8 | [Dc]2 [EB]2 [EA]2 [EG]2 | (G2 F)[^C=E] [DF]4 | %10
 E2 E2 [EA]2 [DA]2 | [DG]8 | [CE]2 [DF]2 [EG]2 [DB]2 | e3 z B (B2 A2) | [DA]2 (GF) [EF]2 [DF]2 | %15
 E8 |] %16
V:2
 E2 x6 | x2 E2 x4 | x8 | x8 | E2 x6 | x2 F2 (F2 ^F2) | x2 G2 x4 | x8 | x8 | D3 x5 | E2 E2 x4 | x8 | %12
 x8 | E2 E2 E4 x | x2 E2 x4 | E8 |] %16
V:3
 [G,B,]2 [F,B,]2 [E,B,]2 [D,F,]2 | [C,G,]2 (A,B,) [F,A,]4 | [B,,A,]2 [E,B,]2 [A,,C]2 [B,,B,]2 | %3
 [E,B,]8 | [E,G,]2 [E,B,]2 [D,B,]2 [C,B,]2 | [F,=A,]2 [F,A,]2 B,4 | [E,=B,]2 (CE) [F,D]2 [F,C]2 | %7
 B,8 | [C,A,]2 [C,G,]2 [B,,C]2 [B,,B,]2 | [B,,A,]3 [B,,G,] [B,,A,]4 | %10
 [C,G,]2 [C,C]2 [F,C]2 [F,C]2 | (C4 =B,4) | [A,C]2 [A,_C]2 [G,B,]2 [F,A,]2 | [E,G,]2 [G,B,]2 C4 x | %14
 [B,,B,]2 ([E,B,][A,,C]) [B,,F,]2 (B,A,) | [E,G,]8 |] %16
V:4
 x8 | x2 C,2 x4 | x8 | x8 | x8 | x4 B,4 | x2 E,2 x4 | B,8 | x8 | x8 | x8 | G,8 | x8 | %13
 x4 (A,2 F,2) x | x6 B,,2 | x8 |] %16

